src/assets/icons/warehouse.svg

<svg width="14" height="14" viewBox="0 0 14 14" fill="none" xmlns="http://www.w3.org/2000/svg">
<g id="warehouse">
<g clip-path="url(#clip0_295_4699)">
<path id="Vector" fill-rule="evenodd" clip-rule="evenodd" d="M6.37391 0.195039C6.76804 -0.00202527 7.23196 -0.00202441 7.62609 0.195039L13.2261 2.995C13.7004 3.23215 14 3.71692 14 4.2472V13.3528C14 13.6842 13.7314 13.9528 13.4 13.9528C13.0686 13.9528 12.8 13.6842 12.8 13.3528V4.2472C12.8 4.17145 12.7572 4.10219 12.6894 4.06832L7.08944 1.26836C7.03314 1.2402 6.96686 1.2402 6.91056 1.26836L1.31056 4.06832C1.2428 4.10219 1.2 4.17145 1.2 4.2472V13.3528C1.2 13.6842 0.931371 13.9528 0.6 13.9528C0.268629 13.9528 0 13.6842 0 13.3528V4.2472C0 3.71692 0.299608 3.23215 0.773909 2.995L6.37391 0.195039ZM2.4 6.95277C2.4 6.17957 3.0268 5.55277 3.8 5.55277H10.2C10.9732 5.55277 11.6 6.17957 11.6 6.95277V12.5528C11.6 13.326 10.9732 13.9528 10.2 13.9528H3.8C3.0268 13.9528 2.4 13.326 2.4 12.5528V6.95277ZM3.8 6.75277C3.68954 6.75277 3.6 6.84231 3.6 6.95277V7.95277H10.4V6.95277C10.4 6.84231 10.3105 6.75277 10.2 6.75277H3.8ZM10.4 9.15277H3.6V10.3528H10.4V9.15277ZM10.4 11.5528H3.6V12.5528C3.6 12.6632 3.68954 12.7528 3.8 12.7528H10.2C10.3105 12.7528 10.4 12.6632 10.4 12.5528V11.5528Z" fill="black"/>
</g>
</g>
<defs>
<clipPath id="clip0_295_4699">
<rect width="14" height="14" fill="white"/>
</clipPath>
</defs>
</svg>

<svg xmlns="http://www.w3.org/2000/svg" fill="none" viewBox="0 0 14 14"><g clip-path="url(#a)"><path fill="#000" fill-rule="evenodd" d="M6.374.195a1.4 1.4 0 0 1 1.252 0l5.6 2.8A1.4 1.4 0 0 1 14 4.247v9.106a.6.6 0 1 1-1.2 0V4.247a.2.2 0 0 0-.11-.179l-5.6-2.8a.2.2 0 0 0-.18 0l-5.6 2.8a.2.2 0 0 0-.11.18v9.105a.6.6 0 1 1-1.2 0V4.247c0-.53.3-1.015.774-1.252zM2.4 6.953a1.4 1.4 0 0 1 1.4-1.4h6.4a1.4 1.4 0 0 1 1.4 1.4v5.6a1.4 1.4 0 0 1-1.4 1.4H3.8a1.4 1.4 0 0 1-1.4-1.4zm1.4-.2a.2.2 0 0 0-.2.2v1h6.8v-1a.2.2 0 0 0-.2-.2zm6.6 2.4H3.6v1.2h6.8zm0 2.4H3.6v1c0 .11.09.2.2.2h6.4a.2.2 0 0 0 .2-.2z" clip-rule="evenodd"/></g><defs><clipPath id="a"><path fill="#fff" d="M0 0h14v14H0z"/></clipPath></defs></svg>
